X: 18
T: No_26_Dance_Song_from_Grindstone_Village_(a).krn
N: Derived from No_26_Dance_Song_from_Grindstone_Village_(a).krn
%%abc-version 2.0
%%abcx-abcm2ps-target-version 5.9.1 (29 Sep 2008)
%%abc-creator hum2abc beta
%%abcx-conversion-date 2019/03/15 08:35:00
%%humdrum-veritas 2663875488
%%humdrum-veritas-data 393096197
%%linebreak <none>
%%barnumbers 0
L: 1/16
M: 3/4
K: E clef=bass
[K:clef=bass][M:3/4]E,/E,3/E,2 F,/F,3/E,E, E,2 z2 | 
E,/E,3/E,E, F,/F,3/E,2 C,C,B,, z | 
E,E,3 F,/F,3/E,E, E,2 z2 | 
E,/E,3/E,E, F,/F,3/E,2 C,C,B,, z [I:setbarnb 5]| 
[M:2/4]G,G,2F,F,4 | 
F,/F,3/E,E,E,4 | 
G,G,2F,F,4 | 
F,/F,3/E,E,E,4 | 
[M:3/4]E,/E,3/E,2 F,/F,3/E,2 C,C,B,, z | 
E,/E,3/E,2 F,/F,3/E,E,E,4 :|]  



